X: 18829
T: Imelda Roland's
R: reel
M: 4/4
K: Edorian
B2 GA BGdB|AD D/D/D AD FD|{A}GFEF G/G/GGA|BAB/c/d egfe|
d/e/d ce dBAG|FD AD BDAD|{A}GFEF G/G/GGA|B/c/d A=c BE E2:|
e/e/e ed efga|be e/e/e bege|d/d/d dc defg|add/d/d adfd|
e/e/e ef edBc|d/d/d dB AFDF|{A}GFEF G/G/GGA|B/c/d A=c BE E2:|

